packages/foundations/assets/icons/functional/images/logos/db_20.svg

<svg width="20" height="20" viewBox="0 0 20 20" fill="none" xmlns="http://www.w3.org/2000/svg">
<g clip-path="url(#clip0_185_1702)">
<path fill-rule="evenodd" clip-rule="evenodd" d="M16.6667 4.16667C17.5872 4.16667 18.3334 4.91288 18.3334 5.83336V14.155C18.3352 15.0782 17.5898 15.8288 16.6667 15.8334H3.34169C2.41985 15.8334 1.67127 15.0885 1.66669 14.1667V5.83336C1.66669 5.38988 1.84342 4.96469 2.15778 4.65189C2.47215 4.33909 2.89822 4.16447 3.34169 4.16667H16.6667ZM16.6667 5.35002H3.34169C3.21582 5.35032 3.09558 5.40217 3.00897 5.4935C2.92237 5.58483 2.87697 5.70766 2.88335 5.83336V14.155C2.87884 14.2796 2.92507 14.4007 3.01147 14.4905C3.09787 14.5804 3.21703 14.6313 3.34169 14.6317H16.6667C16.7899 14.6291 16.9069 14.5772 16.9915 14.4876C17.0761 14.398 17.1212 14.2782 17.1167 14.155V5.83336C17.123 5.70908 17.0787 5.58755 16.9939 5.49647C16.9092 5.4054 16.7911 5.35257 16.6667 5.35002ZM6.76335 6.18169C8.73835 6.18169 9.83003 7.41836 9.83003 9.96502C9.83335 12.175 9.09168 13.8 6.76335 13.8184H3.96002V6.18169H6.76335ZM13.82 6.18502C15.9683 6.18502 16 7.88669 16 8.04502C15.9922 8.86555 15.4521 9.58582 14.6667 9.82335C16.0567 10.125 16.2767 11.135 16.2767 11.6717C16.2767 13.6799 14.3266 13.8094 13.4896 13.8178L10.6333 13.8184V6.18502H13.82ZM6.16502 7.38336H5.79335V12.58H6.44502C7.41669 12.58 7.98168 11.8034 7.98168 10.1234C7.98168 8.58502 7.81502 7.38336 6.16502 7.38336ZM13.2517 10.6184H12.45V12.58L13.2539 12.5799C13.596 12.5773 14.4367 12.5284 14.4367 11.6C14.4367 11.1734 14.2033 10.6184 13.2517 10.6184ZM13.0267 7.36169H12.45V9.20502H13.175C13.815 9.20502 14.175 8.78169 14.175 8.28169C14.175 7.64836 13.8483 7.36169 13.0267 7.36169Z" fill="#1A1C1F"/>
</g>
<defs>
<clipPath id="clip0_185_1702">
<rect width="20" height="20" fill="white"/>
</clipPath>
</defs>
</svg>

<svg xmlns="http://www.w3.org/2000/svg" width="20" height="20" fill="none"><g clip-path="url(#a)"><path fill="#1A1C1F" fill-rule="evenodd" d="M16.667 4.167c.92 0 1.666.746 1.666 1.666v8.322a1.675 1.675 0 0 1-1.666 1.678H3.342c-.922 0-1.67-.745-1.675-1.666V5.833a1.667 1.667 0 0 1 1.675-1.666zm0 1.183H3.342a.46.46 0 0 0-.459.483v8.322a.46.46 0 0 0 .459.477h13.325a.46.46 0 0 0 .45-.477V5.833a.46.46 0 0 0-.45-.483m-9.904.832c1.975 0 3.067 1.236 3.067 3.783.003 2.21-.738 3.835-3.067 3.853H3.96V6.182zm7.057.003c2.148 0 2.18 1.702 2.18 1.86a1.88 1.88 0 0 1-1.333 1.778c1.39.302 1.61 1.312 1.61 1.849 0 2.008-1.95 2.137-2.787 2.146h-2.857V6.185zM6.165 7.383h-.372v5.197h.652c.972 0 1.537-.777 1.537-2.457 0-1.538-.167-2.74-1.817-2.74m7.087 3.235h-.802v1.962h.804c.342-.003 1.183-.052 1.183-.98 0-.427-.234-.982-1.185-.982m-.225-3.256h-.577v1.843h.725c.64 0 1-.423 1-.923 0-.634-.327-.92-1.148-.92" clip-rule="evenodd"/></g><defs><clipPath id="a"><path fill="#fff" d="M0 0h20v20H0z"/></clipPath></defs></svg>
